packages/foundations/assets/icons/functional/images/file/folder_open_24_filled.svg

<svg xmlns="http://www.w3.org/2000/svg" width="20" height="20" fill="none"><path fill="#1A1C1F" fill-rule="evenodd" d="M4.567 4.052c-.53.114-1.097.544-1.331 1.01-.228.451-.236.533-.236 2.32v1.605l-.193.04A1.01 1.01 0 0 0 2 9.998c0 .169.852 4.406.937 4.663.188.564.683 1.046 1.28 1.245l.233.077h11.133l.217-.078c.596-.214 1.079-.691 1.265-1.25.09-.272.935-4.497.935-4.679 0-.453-.386-.886-.857-.962l-.138-.022-.013-.954c-.014-1.041-.017-1.061-.242-1.505-.139-.275-.544-.662-.85-.811-.445-.218-.474-.221-2.85-.223l-2.133-.002-.564-.59c-.652-.682-.776-.788-1.001-.857-.234-.071-4.452-.07-4.785.002m4.72 2.627c.603.619.68.686.856.75.19.07.233.071 2.525.071H15V9H5V6h3.624z"/></svg>

<svg width="20" height="20" viewBox="0 0 20 20" fill="none" xmlns="http://www.w3.org/2000/svg"><path d="M4.567 4.052 C 4.037 4.166,3.470 4.596,3.236 5.062 C 3.008 5.513,3.000 5.595,3.000 7.382 L 3.000 8.987 2.807 9.027 C 2.344 9.122,2.000 9.536,2.000 9.998 C 2.000 10.167,2.852 14.404,2.937 14.661 C 3.125 15.225,3.620 15.707,4.217 15.906 L 4.450 15.983 10.017 15.983 L 15.583 15.983 15.800 15.905 C 16.396 15.691,16.879 15.214,17.065 14.655 C 17.155 14.383,18.000 10.158,18.000 9.976 C 18.000 9.523,17.614 9.090,17.143 9.014 L 17.005 8.992 16.992 8.038 C 16.978 6.997,16.975 6.977,16.750 6.533 C 16.611 6.258,16.206 5.871,15.900 5.722 C 15.455 5.504,15.426 5.501,13.050 5.499 L 10.917 5.497 10.353 4.907 C 9.701 4.225,9.577 4.119,9.352 4.050 C 9.118 3.979,4.900 3.980,4.567 4.052 M9.287 6.679 C 9.890 7.298,9.967 7.365,10.143 7.429 C 10.333 7.499,10.376 7.500,12.668 7.500 L 15.000 7.500 15.000 8.250 L 15.000 9.000 10.000 9.000 L 5.000 9.000 5.000 7.500 L 5.000 6.000 6.812 6.000 L 8.624 6.000 9.287 6.679 " fill="#1A1C1F" stroke="none" fill-rule="evenodd"></path></svg>
